public/images/hashed/e8afa492d74cf51b180f9ff8e8fd4cd2.svg

<svg xmlns="http://www.w3.org/2000/svg" width="80" height="80"><defs><linearGradient id="a" x1="0%" x2="100%" y1="100%" y2="0%"><stop offset="0%" stop-color="#B0084D"/><stop offset="100%" stop-color="#FF4F8B"/></linearGradient></defs><g fill="none" fill-rule="evenodd"><path fill="url(#a)" d="M0 0h80v80H0z"/><path fill="#FFF" d="M40 23.8c2.316 0 4.2 1.884 4.2 4.2 0 2.316-1.884 4.2-4.2 4.2a4.205 4.205 0 0 1-4.2-4.2c0-2.316 1.884-4.2 4.2-4.2Zm0 10.4c3.419 0 6.2-2.781 6.2-6.2s-2.781-6.2-6.2-6.2a6.207 6.207 0 0 0-6.2 6.2c0 3.419 2.781 6.2 6.2 6.2Zm-12-7.725 1.103.063c.451.024.923-.3 1.032-.777a10.025 10.025 0 0 1 1.307-3.15 1 1 0 0 0-.179-1.28l-.826-.738 2.157-2.156.736.825a1 1 0 0 0 1.279.18 10.046 10.046 0 0 1 3.151-1.304 1 1 0 0 0 .777-1.032L38.475 16h3.05l-.062 1.108a1 1 0 0 0 .777 1.032c1.117.252 2.177.692 3.148 1.305.413.259.955.184 1.28-.181l.738-.827 2.157 2.156-.824.736a1 1 0 0 0-.179 1.28 10.023 10.023 0 0 1 1.306 3.151c.109.477.571.802 1.032.778L52 26.475v3.05l-1.101-.063a1.024 1.024 0 0 0-1.032.779 10.018 10.018 0 0 1-1.305 3.153 1 1 0 0 0 .179 1.28l.822.733-2.156 2.157-.729-.818a1.001 1.001 0 0 0-1.281-.18 10.027 10.027 0 0 1-3.157 1.308 1 1 0 0 0-.777 1.033L41.525 40h-3.05l.062-1.095a1 1 0 0 0-.777-1.032 10.047 10.047 0 0 1-3.155-1.309.997.997 0 0 0-1.28.18l-.732.82-2.156-2.157.82-.731c.364-.325.44-.867.18-1.28a9.96 9.96 0 0 1-1.306-3.155 1.02 1.02 0 0 0-1.032-.779L28 29.525v-3.05Zm-.943 5.107 1.339-.076c.232.77.539 1.513.919 2.221l-1.001.892a1.004 1.004 0 0 0-.041 1.454l3.655 3.654a.96.96 0 0 0 .735.292.998.998 0 0 0 .718-.334l.892-1a12.1 12.1 0 0 0 2.221.922l-.076 1.336A.998.998 0 0 0 37.416 42h5.168a1 1 0 0 0 .998-1.057l-.076-1.335c.77-.232 1.514-.54 2.223-.921l.89.998c.183.205.443.326.718.334a.976.976 0 0 0 .735-.292l3.655-3.654a1 1 0 0 0-.041-1.453l-1.003-.895c.38-.708.687-1.45.919-2.219l1.341.076A1 1 0 0 0 54 30.584v-5.167a1 1 0 0 0-1.057-.999l-1.343.077a12.023 12.023 0 0 0-.919-2.217l1.005-.897a1 1 0 0 0 .041-1.453l-3.655-3.654a.972.972 0 0 0-.735-.292.995.995 0 0 0-.718.334l-.899 1.008a12.05 12.05 0 0 0-2.214-.918l.076-1.349A.997.997 0 0 0 42.584 14h-5.168a.997.997 0 0 0-.998 1.057l.076 1.347c-.767.231-1.509.539-2.216.917l-.897-1.006a1 1 0 0 0-1.453-.041l-3.655 3.654a1.002 1.002 0 0 0 .041 1.453l1.007.898a12.006 12.006 0 0 0-.92 2.216l-1.344-.077a1 1 0 0 0-1.057.999v5.167a1 1 0 0 0 1.057.998ZM56 65h6V55h-6v10Zm-19 0h6V55h-6v10Zm-19 0h6V55h-6v10Zm45-12h-3v-5a1 1 0 0 0-1-1H41v-3h-2v3H21a1 1 0 0 0-1 1v5h-3a1 1 0 0 0-1 1v12a1 1 0 0 0 1 1h8a1 1 0 0 0 1-1V54a1 1 0 0 0-1-1h-3v-4h17v4h-3a1 1 0 0 0-1 1v12a1 1 0 0 0 1 1h8a1 1 0 0 0 1-1V54a1 1 0 0 0-1-1h-3v-4h17v4h-3a1 1 0 0 0-1 1v12a1 1 0 0 0 1 1h8a1 1 0 0 0 1-1V54a1 1 0 0 0-1-1Z"/></g></svg>

<?xml version="1.0" encoding="UTF-8"?>
<svg width="80px" height="80px" viewBox="0 0 80 80" version="1.1" xmlns="http://www.w3.org/2000/svg" xmlns:xlink="http://www.w3.org/1999/xlink">
    <!-- Generator: Sketch 64 (93537) - https://sketch.com -->
    <title>Icon-Architecture/64/Arch_AWS-OpsWorks_64</title>
    <desc>Created with Sketch.</desc>
    <defs>
        <linearGradient x1="0%" y1="100%" x2="100%" y2="0%" id="linearGradient-1">
            <stop stop-color="#B0084D" offset="0%"></stop>
            <stop stop-color="#FF4F8B" offset="100%"></stop>
        </linearGradient>
    </defs>
    <g id="Icon-Architecture/64/Arch_AWS-OpsWorks_64" stroke="none" stroke-width="1" fill="none" fill-rule="evenodd">
        <g id="Icon-Architecture-BG/64/Management-Governance" fill="url(#linearGradient-1)">
            <rect id="Rectangle" x="0" y="0" width="80" height="80"></rect>
        </g>
        <path d="M40,23.8 C42.316,23.8 44.2,25.684 44.2,28 C44.2,30.316 42.316,32.2 40,32.2 C37.684,32.2 35.8,30.316 35.8,28 C35.8,25.684 37.684,23.8 40,23.8 L40,23.8 Z M40,34.2 C43.419,34.2 46.2,31.419 46.2,28 C46.2,24.581 43.419,21.8 40,21.8 C36.581,21.8 33.8,24.581 33.8,28 C33.8,31.419 36.581,34.2 40,34.2 L40,34.2 Z M28,26.475 L29.103,26.538 C29.554,26.562 30.026,26.238 30.135,25.761 C30.388,24.644 30.827,23.584 31.442,22.611 C31.703,22.197 31.627,21.656 31.263,21.331 L30.437,20.593 L32.594,18.437 L33.33,19.262 C33.654,19.627 34.197,19.701 34.609,19.442 C35.58,18.83 36.64,18.391 37.76,18.138 C38.236,18.03 38.565,17.594 38.537,17.106 L38.475,16 L41.525,16 L41.463,17.108 C41.435,17.595 41.764,18.032 42.24,18.14 C43.357,18.392 44.417,18.832 45.388,19.445 C45.801,19.704 46.343,19.629 46.668,19.264 L47.406,18.437 L49.563,20.593 L48.739,21.329 C48.375,21.654 48.299,22.196 48.56,22.609 C49.174,23.581 49.613,24.641 49.866,25.76 C49.975,26.237 50.437,26.562 50.898,26.538 L52,26.475 L52,29.525 L50.899,29.462 C50.437,29.438 49.976,29.763 49.867,30.241 C49.615,31.36 49.176,32.421 48.562,33.394 C48.301,33.808 48.377,34.349 48.741,34.674 L49.563,35.407 L47.407,37.564 L46.678,36.746 C46.352,36.38 45.809,36.306 45.397,36.566 C44.424,37.181 43.361,37.621 42.24,37.874 C41.764,37.982 41.435,38.419 41.463,38.907 L41.525,40 L38.475,40 L38.537,38.905 C38.565,38.418 38.236,37.981 37.76,37.873 C36.641,37.62 35.579,37.179 34.605,36.564 C34.192,36.303 33.65,36.377 33.325,36.744 L32.593,37.564 L30.437,35.407 L31.257,34.676 C31.621,34.351 31.697,33.809 31.437,33.396 C30.822,32.425 30.383,31.363 30.131,30.241 C30.023,29.763 29.562,29.436 29.099,29.462 L28,29.525 L28,26.475 Z M27.057,31.582 L28.396,31.506 C28.628,32.276 28.935,33.019 29.315,33.727 L28.314,34.619 C28.109,34.803 27.988,35.062 27.98,35.338 C27.973,35.613 28.079,35.879 28.273,36.073 L31.928,39.727 C32.122,39.922 32.387,40.036 32.663,40.019 C32.938,40.011 33.198,39.891 33.381,39.685 L34.273,38.685 C34.982,39.066 35.725,39.374 36.494,39.607 L36.418,40.943 C36.402,41.218 36.5,41.487 36.689,41.687 C36.878,41.887 37.141,42 37.416,42 L42.584,42 C42.859,42 43.122,41.887 43.311,41.687 C43.5,41.487 43.598,41.218 43.582,40.943 L43.506,39.608 C44.276,39.376 45.02,39.068 45.729,38.687 L46.619,39.685 C46.802,39.89 47.062,40.011 47.337,40.019 C47.593,40.039 47.879,39.922 48.072,39.727 L51.727,36.073 C51.921,35.879 52.027,35.613 52.02,35.338 C52.012,35.062 51.891,34.803 51.686,34.62 L50.683,33.725 C51.063,33.017 51.37,32.275 51.602,31.506 L52.943,31.582 C53.218,31.595 53.487,31.5 53.687,31.311 C53.887,31.122 54,30.859 54,30.584 L54,25.417 C54,25.142 53.887,24.879 53.687,24.69 C53.488,24.501 53.219,24.401 52.943,24.418 L51.6,24.495 C51.368,23.727 51.061,22.985 50.681,22.278 L51.686,21.381 C51.891,21.198 52.012,20.939 52.02,20.663 C52.027,20.388 51.921,20.122 51.727,19.928 L48.072,16.274 C47.878,16.079 47.617,15.97 47.337,15.982 C47.062,15.989 46.802,16.11 46.619,16.316 L45.72,17.324 C45.013,16.945 44.272,16.637 43.506,16.406 L43.582,15.057 C43.598,14.782 43.5,14.513 43.311,14.314 C43.122,14.113 42.859,14 42.584,14 L37.416,14 C37.141,14 36.878,14.113 36.689,14.314 C36.5,14.513 36.402,14.782 36.418,15.057 L36.494,16.404 C35.727,16.635 34.985,16.943 34.278,17.321 L33.381,16.315 C33.197,16.11 32.938,15.989 32.663,15.982 C32.39,15.973 32.122,16.079 31.928,16.274 L28.273,19.928 C28.079,20.122 27.973,20.388 27.98,20.663 C27.988,20.938 28.109,21.198 28.314,21.381 L29.321,22.279 C28.94,22.987 28.633,23.728 28.401,24.495 L27.057,24.418 C26.78,24.4 26.512,24.501 26.313,24.69 C26.113,24.879 26,25.142 26,25.417 L26,30.584 C26,30.859 26.113,31.122 26.313,31.311 C26.513,31.5 26.781,31.596 27.057,31.582 L27.057,31.582 Z M56,65 L62,65 L62,55 L56,55 L56,65 Z M37,65 L43,65 L43,55 L37,55 L37,65 Z M18,65 L24,65 L24,55 L18,55 L18,65 Z M63,53 L60,53 L60,48 C60,47.448 59.553,47 59,47 L41,47 L41,44 L39,44 L39,47 L21,47 C20.447,47 20,47.448 20,48 L20,53 L17,53 C16.447,53 16,53.448 16,54 L16,66 C16,66.552 16.447,67 17,67 L25,67 C25.553,67 26,66.552 26,66 L26,54 C26,53.448 25.553,53 25,53 L22,53 L22,49 L39,49 L39,53 L36,53 C35.447,53 35,53.448 35,54 L35,66 C35,66.552 35.447,67 36,67 L44,67 C44.553,67 45,66.552 45,66 L45,54 C45,53.448 44.553,53 44,53 L41,53 L41,49 L58,49 L58,53 L55,53 C54.447,53 54,53.448 54,54 L54,66 C54,66.552 54.447,67 55,67 L63,67 C63.553,67 64,66.552 64,66 L64,54 C64,53.448 63.553,53 63,53 L63,53 Z" id="AWS-OpsWorks_Icon_64_Squid" fill="#FFFFFF"></path>
    </g>
</svg>
